X: 41773
T: Varsovienne
R: waltz
M: 3/4
K: Dmajor
f>ff2A2|f>ff2A2|f>ff2e2|d2c4|
e>ee2A2|e>ee2A2|e>ee2d2|c2d4|
f>ff2A2|f>ff2A2|f>ff2e2|d2c4|
e>ee2A2|e>ee2A2|e>ee2d2|c2d4|
Adf4|edc zBz|Acg2c>B|c>ed2A>G|
A>df4|edc zBz|Az/e/c'2ga|gcd4|
Adf4|edc zBz|Acg2c>B|c>ed2A>G|
A>df4|edc zBz|Az/e/c'2ga|gcd4|
f>ff2A2|f>ff2A2|f>ff2e2|d2c4|
e>ee2A2|e>ee2A2|e>ee2d2|c2d4|
f>ff2A2|f>ff2A2|f>ff2e2|d2c4|
e>ee2A2|e>ee2A2|e>ee2d2|c2d4|
Adf4|edc zBz|Acg2c>B|c>ed2A>G|
A>df4|edc zBz|Acg2c>B|gcd4|
Adf4|edc zBz|Acg2c>B|c>ed2A>G|
A>df4|edc zBz|Acg2c>B|gcd4|

